X:55
T:Cup of Tea (reel), The 
B:CRE2.278 (An CupÃÂÃÂÃÂÃÂ¡n Tae)
F:file ID: cre.2/055cup_t
N:Note that this version (from piper Andy Conroy) is ABB.
L:1/8
M:C
R:reel
Q:180
K:G
BAGF GFef|(3gfe be geec|BAGF GFEF|(3gfd AG FDDD|
BAGF GFef|(3gfe be geec|BAGF GABc|dBAG FDDD||
d2eg (3fed eA|(3ddd eg (3gfd Bd|ddeg (3gfd eA|BdAG FDDD|
(3ddd eg (3fgf eA|dfaf g2fg|af (3gfe fdeA|dBAG FDDD:|

%%%

